icons/svgs/users-outline.svg

<svg width="25" height="24" viewBox="0 0 25 24" fill="none" xmlns="http://www.w3.org/2000/svg">
<path d="M5.625 8.25C4.49219 8.25 3.47656 7.66406 2.89062 6.6875C2.34375 5.75 2.34375 4.53906 2.89062 3.5625C3.47656 2.625 4.49219 2 5.625 2C6.71875 2 7.73438 2.625 8.32031 3.5625C8.86719 4.53906 8.86719 5.75 8.32031 6.6875C7.73438 7.66406 6.71875 8.25 5.625 8.25ZM20 8.25C18.8672 8.25 17.8516 7.66406 17.2656 6.6875C16.7188 5.75 16.7188 4.53906 17.2656 3.5625C17.8516 2.625 18.8672 2 20 2C21.0938 2 22.1094 2.625 22.6953 3.5625C23.2422 4.53906 23.2422 5.75 22.6953 6.6875C22.1094 7.66406 21.0938 8.25 20 8.25ZM0 13.6797C0 11.375 1.83594 9.5 4.14062 9.5H5.82031C6.44531 9.5 7.03125 9.65625 7.57812 9.89062C7.5 10.1641 7.5 10.4766 7.5 10.75C7.5 12.2734 8.125 13.6016 9.17969 14.5H9.14062H0.820312C0.351562 14.5 0 14.1484 0 13.6797ZM15.8203 14.5H15.7812C16.8359 13.6016 17.5 12.2734 17.5 10.75C17.5 10.4766 17.4609 10.1641 17.4219 9.89062C17.9297 9.65625 18.5156 9.5 19.1406 9.5H20.8203C23.125 9.5 25 11.375 25 13.6797C25 14.1484 24.6094 14.5 24.1406 14.5H15.8203ZM12.5 8.875C11.7969 8.875 11.2109 9.26562 10.8594 9.8125C10.5078 10.3984 10.5078 11.1406 10.8594 11.6875C11.2109 12.2734 11.7969 12.625 12.5 12.625C13.1641 12.625 13.75 12.2734 14.1016 11.6875C14.4531 11.1406 14.4531 10.3984 14.1016 9.8125C13.75 9.26562 13.1641 8.875 12.5 8.875ZM12.5 14.5C11.1328 14.5 9.92188 13.7969 9.21875 12.625C8.55469 11.4922 8.55469 10.0469 9.21875 8.875C9.92188 7.74219 11.1328 7 12.5 7C13.8281 7 15.0391 7.74219 15.7422 8.875C16.4062 10.0469 16.4062 11.4922 15.7422 12.625C15.0391 13.7969 13.8281 14.5 12.5 14.5ZM10.1953 17.625C8.63281 17.625 7.34375 18.7188 6.95312 20.125H18.0078C17.6172 18.7188 16.3281 17.625 14.7656 17.625H10.1953ZM10.1953 15.75H14.7656C17.6562 15.75 20 18.0938 20 20.9844C20 21.5703 19.5312 22 18.9453 22H6.01562C5.42969 22 5 21.5312 5 20.9844C5 18.0938 7.30469 15.75 10.1953 15.75Z" fill="black"/>
</svg>

<svg xmlns="http://www.w3.org/2000/svg" width="24" height="24" fill="currentColor" class="icon-users-outline" viewBox="0 0 24 24">
  <mask id="a" width="25" height="20" x="0" y="2" maskUnits="userSpaceOnUse" style="mask-type:alpha">
    <path d="M5.625 8.25a3.16 3.16 0 0 1-2.734-1.562c-.547-.938-.547-2.149 0-3.125C3.477 2.625 4.492 2 5.625 2c1.094 0 2.11.625 2.695 1.563.547.976.547 2.187 0 3.125-.586.976-1.601 1.562-2.695 1.562M20 8.25a3.16 3.16 0 0 1-2.734-1.562c-.547-.938-.547-2.149 0-3.125C17.852 2.625 18.867 2 20 2c1.094 0 2.11.625 2.695 1.563.547.976.547 2.187 0 3.125C22.11 7.664 21.094 8.25 20 8.25M0 13.68C0 11.375 1.836 9.5 4.14 9.5h1.68c.625 0 1.211.156 1.758.39-.078.274-.078.587-.078.86 0 1.523.625 2.852 1.68 3.75H.82a.8.8 0 0 1-.82-.82m15.82.82h-.039a4.88 4.88 0 0 0 1.719-3.75c0-.273-.04-.586-.078-.86a4.1 4.1 0 0 1 1.719-.39h1.68A4.184 4.184 0 0 1 25 13.68c0 .468-.39.82-.86.82zM12.5 8.875c-.703 0-1.29.39-1.64.938-.352.585-.352 1.328 0 1.874a1.87 1.87 0 0 0 1.64.938c.664 0 1.25-.352 1.602-.937.351-.547.351-1.29 0-1.876-.352-.546-.938-.937-1.602-.937m0 5.625c-1.367 0-2.578-.703-3.281-1.875-.664-1.133-.664-2.578 0-3.75C9.922 7.742 11.133 7 12.5 7c1.328 0 2.54.742 3.242 1.875.664 1.172.664 2.617 0 3.75-.703 1.172-1.914 1.875-3.242 1.875m-2.305 3.125c-1.562 0-2.851 1.094-3.242 2.5h11.055c-.39-1.406-1.68-2.5-3.242-2.5zm0-1.875h4.57A5.235 5.235 0 0 1 20 20.984C20 21.57 19.531 22 18.945 22H6.015A1.01 1.01 0 0 1 5 20.984c0-2.89 2.305-5.234 5.195-5.234"/>
  </mask>
  <g mask="url(#a)">
    <path d="M0 0h24v24H0z"/>
  </g>
</svg>
